X:1
T:James Gibb editions
T:O vos omnes II - Victoria
T:#
%%score [ 1 2 3 4 ]
L:1/8
Q:1/4=108
M:2/2
K:Bb
V:1 treble nm="Soprano" snm="S"
V:2 treble nm="Alto" snm="A"
V:3 treble-8 nm="Tenor" snm="T"
V:4 bass nm="Bass" snm="B"
V:1
"^O vos omnes II""^Tomás Luis de Victoria\n(1548-1611)" z4 G4- | G4 G4- | G4 _A4 | G8 | z2 G4 G2 | %5
w: O|* vos|* om-|nes,|qui tran-|
 G4 G2 G2 |[M:2/2] F8 | =E4 z4 | z8 | z8 | z8 | z8 | z2 G4 G2 | c8 | =B8 || z8 | z4 c4- | c4 B4 | %18
w: si- tis per|vi-|am,|||||et vi-|de-|te.||Si|* est|
 _A4 G2 (G2- | G2 FE F2) F2 | G4 z2 G2- | G2 G2 G2 G2 | (_A4 G4) | G8 || G8 | B6 A2 | A4 z2 B2- | %27
w: do- lor si\-|* * * * mi-|lis si\-|* cut do- lor|me\- *|us.|At-|ten- di-|te u\-|
 B2 B2 B2 c2 | (A2 B3 A G2- | G2) ^F2 G2 D2- | D2 =E2 F4 | D4 z2 C2 | G6 F2 | %33
w: * ni- ver- si|po\- * * *|* pu- li, et|* vi- de-|te do-|lo- rem|
 E2 D2[Q:1/4=107] z2[Q:1/4=105] G2 |[Q:1/4=104] c6[Q:1/4=100] B2[Q:1/4=103][Q:1/4=101] | %35
w: me- um, do-|lo- rem|
[Q:1/4=98] _A8[Q:1/4=97][Q:1/4=95] |[Q:1/4=93] G8[Q:1/4=92][Q:1/4=91] |] %37
w: me-|um.|
V:2
 C8 | (E6 DC | D2 =E2) F4 | D8 | E6 E2 | E4 D2 E2 |[M:2/2] (DC C4 =B,2) | C4 z4 | z4 G4- | G4 B4- | %10
w: O|vos * *|* * om-|nes,|qui tran-|si- tis per|vi\- * * *|am,|at\-|* ten\-|
 B2 A2 A4 | G6 F2 | (G3 A B2 G2- | G2 FE F4) | G8 || z4 G4- | G4 F4 | G4 D4 | (F4 E2 D2 | C6) C2 | %20
w: * di- te|et vi-|de- * * *||te.|Si|* est|do- lor|si\- * *|* mi-|
 D8 | E3 E E2 D2 | (F4 D4) | =E8 || z4 D4- | D4 F4- | F2 F2 F4 | G3 G G2 G2 | (F4 G4) | A4 B4 | %30
w: lis|si- cut do- lor|me\- *|us.|At\-|* ten\-|* di- te|u- ni- ver- si|po\- *|pu- li,|
 G4 A4 | B4 G4 | z2 G2 c4- | c2 B2 (_A2 G2- | G2 F2) G2 D2 | F2 C2 (F4- | F2 =E2) E4 |] %37
w: et vi-|de- te|do- lo\-|* rem me\- *|* * um, do-|lo- rem me\-|* * um.|
V:3
 z4 G4- | G4 B4- | B4 (c4- | c2 =B2) B4 | z2 c4 c2 | c4 B2 G2 |[M:2/2][K:treble-8] (_A3 G F4) | %7
w: O|* vos|* om\-|* * nes,|qui tran-|si- tis per|vi\- * *|
 G4 z4 | c8 | e6 d2 | d4 c4- | c2 B2 (c2 d2 | e4 d2 e2- | edcB c4) | d8 || e8 | d4 c4 | %17
w: am,|at-|ten- di-|te et|* vi- de\- *|||te.|Si|est do-|
 d4 z2 (d2- | dc c4) =B2 | c4 z2 c2- | c2 =B2 B4 | c3 c c2 =B2 | (c6 =B2) | c8 || z4 G4- | G4 d4- | %26
w: lor si\-|* * * mi-|lis, si\-|* mi- lis|si- cut do- lor|me\- *|us.|At\-|* ten\-|
 d2 d2 d4 | e3 e e2 c2 | (d4 e3 d | c2) d2 G4- | G4 z4 | z2 G2 c4- | c2 B2 _A4 | G2 G2 (c3 B | %34
w: * di- te|u- ni- ver- si|po\- * *|* pu- li,||do- lo\-|* rem me-|um, do- lo\- *|
 _A4) G4 | F8 | c8 |] %37
w: * rem|me-|um.|
V:4
 z4 C,4- | C,4 G,4- | G,4 F,4 | G,8 | z2 C,4 C,2 | C,4 G,2 E,2 |[M:2/2] (F,3 E, D,4) | C,4 z4 | %8
w: O|* vos|* om-|nes,|qui tran-|si- tis per|vi\- * *|am,|
 z4 C,4- | C,4 G,4- | G,2 F,2 F,4 | E,6 D,2 | (C,D,E,F, G,2 E,2 | _A,8) | G,8 || C8 | B,4 _A,4 | %17
w: at\-|* ten\-|* di- te|et vi-|de\- * * * * *||te.|Si|est do-|
 G,8 | (F,4 G,4 | _A,6) A,2 | G,8 | C,3 C, C,2 G,2 | (F,4 G,4) | C,8 || z8 | z8 | z8 | z8 | z8 | %29
w: lor|si\- *|* mi-|lis|si- cut do- lor|me\- *|us.||||||
 z8 | z8 | z8 | z8 | z8 | z8 | z8 | z8 |] %37
w: ||||||||

